X:1
T:Belle Mama
M:4/4
L:1/8
K:D
"^(1)"D>D DD E>E DC|"^(2)"D8 |"^(3)"D>D DD E>E EA|"^(4)"A8 |
w:Bel-le Ma-ma bel-le Ma-ma ay Bel-le Ma-ma bel-le Ma-ma ay 
A>A AA G>G GG|F>F FF E>E EE|
w:Bel-le Ma-ma bel-le Ma-ma bel-le Ma-ma bel-le Ma-ma
D>D DD E>E DC|D8|]
w: bel-le Ma-ma bel-le Ma-ma ay 
